brandFactory_export/1.Light/Archivo comprimido_1Light.svg

<?xml version="1.0" encoding="UTF-8"?>
<svg width="24px" height="24px" viewBox="0 0 24 24" version="1.1" xmlns="http://www.w3.org/2000/svg" xmlns:xlink="http://www.w3.org/1999/xlink">
    <title>1.Light/Archivo comprimido_1Light</title>
    <g id="Symbols" stroke="none" stroke-width="1" fill="none" fill-rule="evenodd">
        <g id="1.Light/Archivo-comprimido_1Light" fill="#5CB615" fill-rule="nonzero">
            <path d="M6.61680672,17.1394958 L9.33613445,17.1394958 L9.33613445,15.892437 L6.61680672,15.892437 L6.61680672,17.1394958 Z M19.2857143,22.6352941 L4.48907563,22.6352941 C4.24705882,22.6352941 4.00504202,22.4067227 4.00504202,22.1781513 L4.00504202,1.44537815 C4.00504202,1.23697479 4.26722689,0.988235294 4.48907563,0.988235294 L7.51092437,0.988235294 L7.51092437,3.9092437 L6.11260504,3.9092437 C5.84369748,3.9092437 5.62521008,4.13109244 5.62521008,4.40336134 C5.62521008,4.67563025 5.84369748,4.89747899 6.11260504,4.89747899 L7.51092437,4.89747899 L7.51092437,7.25714286 L6.11260504,7.25714286 C5.84369748,7.25714286 5.62521008,7.4789916 5.62521008,7.7512605 C5.62521008,8.02352941 5.84369748,8.24537815 6.11260504,8.24537815 L7.51092437,8.24537815 L7.51092437,10.605042 L6.11260504,10.605042 C5.84369748,10.605042 5.62521008,10.8268908 5.62521008,11.0991597 C5.62521008,11.3714286 5.84369748,11.5932773 6.11260504,11.5932773 L7.51092437,11.5932773 L7.51092437,14.3630252 L6.12605042,14.3630252 C5.85714286,14.3630252 5.63865546,14.5848739 5.63865546,14.8571429 L5.63865546,17.6336134 C5.63865546,17.9058824 5.85714286,18.1277311 6.12605042,18.1277311 L9.82352941,18.1277311 C10.092437,18.1277311 10.3109244,17.9058824 10.3109244,17.6336134 L10.3109244,14.8571429 C10.3109244,14.5848739 10.092437,14.3630252 9.82352941,14.3630252 L8.48907563,14.3630252 L8.48907563,13.2672269 L9.85378151,13.2672269 C10.1260504,13.2672269 10.3411765,13.0453782 10.3411765,12.7731092 C10.3411765,12.5008403 10.1226891,12.2789916 9.85378151,12.2789916 L8.48907563,12.2789916 L8.48907563,9.91596639 L9.85378151,9.91596639 C10.1260504,9.91596639 10.3411765,9.69411765 10.3411765,9.42184874 C10.3411765,9.14957983 10.1226891,8.92773109 9.85378151,8.92773109 L8.48907563,8.92773109 L8.48907563,6.56470588 L9.85378151,6.56470588 C10.1260504,6.56470588 10.3411765,6.34285714 10.3411765,6.07058824 C10.3411765,5.79831933 10.1226891,5.57647059 9.85378151,5.57647059 L8.48907563,5.57647059 L8.48907563,3.21680672 L9.85378151,3.21680672 C10.1260504,3.21680672 10.3411765,2.99495798 10.3411765,2.72268908 C10.3411765,2.45042017 10.1226891,2.22857143 9.85378151,2.22857143 L8.48907563,2.22857143 L8.48907563,0.981512605 L12.6739496,0.981512605 L12.6739496,3.95294118 C12.6739496,5.10252101 13.0638655,6.0907563 13.8033613,6.81344538 C14.5361345,7.53277311 15.5411765,7.9092437 16.707563,7.9092437 L19.7664221,7.9092437 L19.7664221,22.1747899 C19.7697479,22.4134454 19.5344538,22.6352941 19.2857143,22.6352941 L19.2857143,22.6352941 Z M19.5142857,6.92773109 L16.7109244,6.92773109 C15.8033613,6.92773109 15.0336134,6.64537815 14.4857143,6.10756303 C13.9411765,5.57647059 13.6521008,4.83361345 13.6521008,3.95630252 L13.6521008,1.2 L19.5142857,6.92773109 Z M20.502521,6.51764706 L14.0655462,0.231932773 C13.9109244,0.0840336134 13.7092437,0 13.4941176,0 L4.48907563,0 C3.72268908,0 3.02689076,0.68907563 3.02689076,1.44537815 L3.02689076,22.1815126 C3.02689076,22.9512605 3.7092437,23.6268908 4.48907563,23.6268908 L19.2823529,23.6268908 C20.0722689,23.6268908 20.744628,22.9647059 20.744628,22.1815126 L20.744628,7.10252101 C20.7478992,6.88403361 20.6571429,6.67226891 20.502521,6.51764706 L20.502521,6.51764706 Z" id="Archivo-comprimido_1Light"></path>
        </g>
    </g>
</svg>

<svg width="24" height="24" viewBox="0 0 24 24" xmlns="http://www.w3.org/2000/svg"><path d="M6.617 17.14h2.72v-1.248h-2.72v1.247zm12.669 5.495H4.489c-.242 0-.484-.228-.484-.457V1.445c0-.208.262-.457.484-.457h3.022V3.91H6.113a.491.491 0 00-.488.494c0 .273.219.494.488.494H7.51v2.36H6.113a.491.491 0 00-.488.494c0 .273.219.494.488.494H7.51v2.36H6.113a.491.491 0 00-.488.494c0 .272.219.494.488.494H7.51v2.77H6.126a.491.491 0 00-.487.494v2.777c0 .272.218.494.487.494h3.698a.491.491 0 00.487-.494v-2.777a.491.491 0 00-.487-.494H8.489v-1.096h1.365a.49.49 0 00.487-.494.491.491 0 00-.487-.494H8.489V9.916h1.365a.49.49 0 00.487-.494.491.491 0 00-.487-.494H8.489V6.565h1.365a.49.49 0 00.487-.494.491.491 0 00-.487-.495H8.489v-2.36h1.365a.49.49 0 00.487-.493.491.491 0 00-.487-.494H8.489V.982h4.185v2.97c0 1.15.39 2.139 1.13 2.861.732.72 1.737 1.096 2.904 1.096h3.058v14.266c.004.238-.232.46-.48.46zm.228-15.707h-2.803c-.908 0-1.677-.283-2.225-.82-.545-.532-.834-1.274-.834-2.152V1.2l5.862 5.728zm.989-.41L14.066.232A.823.823 0 0013.494 0H4.49c-.766 0-1.462.69-1.462 1.445v20.737c0 .77.682 1.445 1.462 1.445h14.793c.79 0 1.463-.662 1.463-1.445V7.102a.816.816 0 00-.242-.584z" fill="#5CB615" fill-rule="nonzero"/></svg>
